images/ctoken-wbtc.svg

<svg height="250" viewBox="0 0 250 250" width="250" xmlns="http://www.w3.org/2000/svg" xmlns:xlink="http://www.w3.org/1999/xlink"><linearGradient id="a" gradientTransform="scale(.976562 .972763)" gradientUnits="userSpaceOnUse" x1="96.456398" x2="136.022003" y1="15.5724" y2="234.931"><stop offset="0" stop-color="#27d3a2"/><stop offset="1" stop-color="#9388fd"/></linearGradient><path d="m247.617188 113c6.710937 67.457031-42.75 127.558594-110.46875 134.242188-67.71875 6.683593-128.054688-42.582032-134.765626-110.039063-6.710937-67.457031 42.75-127.558594 110.46875-134.242187 67.71875-6.683594 128.054688 42.582031 134.765626 110.039062zm0 0" fill="#f9fafb"/><path d="m203.222656 219.933594c-18.828125 15.410156-41.824218 24.914062-66.074218 27.308594-32.519532 3.207031-64.988282-6.582032-90.261719-27.21875-25.273438-20.636719-41.28125-50.425782-44.503907-82.820313-2.4023432-24.15625 2.441407-48.480469 13.914063-69.898437 11.476563-21.414063 29.070313-38.960938 50.554687-50.414063 21.488282-11.457031 45.898438-16.308594 70.15625-13.941406 24.253907 2.363281 47.257813 11.839843 66.105469 27.230469l-24.855469 30.203124c-12.851562-10.496093-28.535156-16.957031-45.070312-18.566406-16.539062-1.613281-33.183594 1.695313-47.832031 9.503906-14.652344 7.8125-26.644531 19.773438-34.46875 34.375-7.824219 14.601563-11.128907 31.1875-9.488281 47.65625 2.195312 22.085938 13.109374 42.398438 30.34375 56.46875 17.230468 14.070313 39.367187 20.746094 61.539062 18.558594 16.539062-1.632812 32.214844-8.113281 45.054688-18.621094zm0 0" fill="url(#a)"/><path d="m125 226.269531c56.09375 0 101.5625-45.292969 101.5625-101.167969s-45.46875-101.167968-101.5625-101.167968c-56.089844 0-101.5625 45.292968-101.5625 101.167968s45.472656 101.167969 101.5625 101.167969zm0 0" fill="#fff"/><path d="m137.332031 123c2.898438-1.539062 4.710938-4.25 4.289063-8.769531-.570313-6.175781-5.683594-8.246094-12.132813-8.839844v-8.566406h-5v8.34375c-1.316406 0-2.65625.027343-3.992187.054687v-8.394531l-4.996094-.003906v8.566406c-1.082031.023437-2.144531.046875-3.183594.046875v-.027344l-6.894531-.003906v5.570312s3.695313-.074218 3.632813-.003906c2.023437.003906 2.683593 1.230469 2.875 2.289063v23.46875c-.089844.664062-.464844 1.726562-1.878907 1.726562.066407.058594-3.636719 0-3.636719 0l-.992187 6.226563h6.507813c1.210937 0 2.398437.019531 3.570312.03125v8.664062h4.996094l-.003906-8.574218c1.375.03125 2.703124.042968 3.996093.042968v8.53125h4.996094l.003906-8.648437c8.402344-.503907 14.285157-2.714844 15.015625-10.945313.589844-6.628906-2.402344-9.589844-7.171875-10.785156zm-16.714843-11.648438c2.816406 0 11.683593-.9375 11.6875 5.207032-.003907 5.894531-8.867188 5.203125-11.6875 5.203125zm-.003907 27.148438.003907-11.480469c3.386718 0 14.007812-1.015625 14.011718 5.738281 0 6.476563-10.625 5.738282-14.015625 5.742188zm0 0" fill="#657786"/><g fill="none" transform="scale(.976562 .972763)"><path d="m178.12 128.604406c0 27.679703-22.44 50.119016-50.12 50.119016s-50.12-22.439313-50.12-50.119016 22.44-50.119015 50.12-50.119015 50.12 22.439312 50.12 50.119015zm0 0" stroke="#657786" stroke-width="8.019"/><path d="m194.156 128.604406c0 36.538172-29.62 66.157422-66.156 66.157422s-66.156-29.61925-66.156-66.157422 29.62-66.157422 66.156-66.157422 66.156 29.61925 66.156 66.157422zm0 0" stroke="#283947" stroke-width="8.019"/><path d="m165.328 169.700312-17.196-16.941921m-46.488-45.81025-14.74-14.428141m3.916 77.180312 17.192-16.941921m46.492-45.81025 14.592-14.428141" stroke="#fff" stroke-width="6.01425"/></g></svg>

<svg xmlns="http://www.w3.org/2000/svg" xmlns:xlink="http://www.w3.org/1999/xlink" width="250px" height="250px" viewBox="0 0 250 250" version="1.1">
<defs>
<linearGradient id="linear0" gradientUnits="userSpaceOnUse" x1="96.456398" y1="15.5724" x2="136.022003" y2="234.931" gradientTransform="matrix(0.976562,0,0,0.972763,0,0)">
<stop offset="0" style="stop-color:rgb(15.294118%,82.745099%,63.529414%);stop-opacity:1;"/>
<stop offset="1" style="stop-color:rgb(57.647061%,53.333336%,99.215686%);stop-opacity:1;"/>
</linearGradient>
</defs>
<g id="surface1">
<path style=" stroke:none;fill-rule:nonzero;fill:rgb(97.647059%,98.039216%,98.431373%);fill-opacity:1;" d="M 247.617188 113 C 254.328125 180.457031 204.867188 240.558594 137.148438 247.242188 C 69.429688 253.925781 9.09375 204.660156 2.382812 137.203125 C -4.328125 69.746094 45.132812 9.644531 112.851562 2.960938 C 180.570312 -3.722656 240.90625 45.542969 247.617188 113 Z M 247.617188 113 "/>
<path style=" stroke:none;fill-rule:nonzero;fill:url(#linear0);" d="M 203.222656 219.933594 C 184.394531 235.34375 161.398438 244.847656 137.148438 247.242188 C 104.628906 250.449219 72.160156 240.660156 46.886719 220.023438 C 21.613281 199.386719 5.605469 169.597656 2.382812 137.203125 C -0.0195312 113.046875 4.824219 88.722656 16.296875 67.304688 C 27.773438 45.890625 45.367188 28.34375 66.851562 16.890625 C 88.339844 5.433594 112.75 0.582031 137.007812 2.949219 C 161.261719 5.3125 184.265625 14.789062 203.113281 30.179688 L 178.257812 60.382812 C 165.40625 49.886719 149.722656 43.425781 133.1875 41.816406 C 116.648438 40.203125 100.003906 43.511719 85.355469 51.320312 C 70.703125 59.132812 58.710938 71.09375 50.886719 85.695312 C 43.0625 100.296875 39.757812 116.882812 41.398438 133.351562 C 43.59375 155.4375 54.507812 175.75 71.742188 189.820312 C 88.972656 203.890625 111.109375 210.566406 133.28125 208.378906 C 149.820312 206.746094 165.496094 200.265625 178.335938 189.757812 Z M 203.222656 219.933594 "/>
<path style=" stroke:none;fill-rule:nonzero;fill:rgb(100%,100%,100%);fill-opacity:1;" d="M 125 226.269531 C 181.09375 226.269531 226.5625 180.976562 226.5625 125.101562 C 226.5625 69.226562 181.09375 23.933594 125 23.933594 C 68.910156 23.933594 23.4375 69.226562 23.4375 125.101562 C 23.4375 180.976562 68.910156 226.269531 125 226.269531 Z M 125 226.269531 "/>
<path style=" stroke:none;fill-rule:nonzero;fill:rgb(39.607844%,46.666667%,52.549022%);fill-opacity:1;" d="M 137.332031 123 C 140.230469 121.460938 142.042969 118.75 141.621094 114.230469 C 141.050781 108.054688 135.9375 105.984375 129.488281 105.390625 L 129.488281 96.824219 L 124.488281 96.824219 L 124.488281 105.167969 C 123.171875 105.167969 121.832031 105.195312 120.496094 105.222656 L 120.496094 96.828125 L 115.5 96.824219 L 115.5 105.390625 C 114.417969 105.414062 113.355469 105.4375 112.316406 105.4375 L 112.316406 105.410156 L 105.421875 105.40625 L 105.421875 110.976562 C 105.421875 110.976562 109.117188 110.902344 109.054688 110.972656 C 111.078125 110.976562 111.738281 112.203125 111.929688 113.261719 L 111.929688 136.730469 C 111.839844 137.394531 111.464844 138.457031 110.050781 138.457031 C 110.117188 138.515625 106.414062 138.457031 106.414062 138.457031 L 105.421875 144.683594 L 111.929688 144.683594 C 113.140625 144.683594 114.328125 144.703125 115.5 144.714844 L 115.5 153.378906 L 120.496094 153.378906 L 120.492188 144.804688 C 121.867188 144.835938 123.195312 144.847656 124.488281 144.847656 L 124.488281 153.378906 L 129.484375 153.378906 L 129.488281 144.730469 C 137.890625 144.226562 143.773438 142.015625 144.503906 133.785156 C 145.09375 127.15625 142.101562 124.195312 137.332031 123 Z M 120.617188 111.351562 C 123.433594 111.351562 132.300781 110.414062 132.304688 116.558594 C 132.300781 122.453125 123.4375 121.761719 120.617188 121.761719 Z M 120.613281 138.5 L 120.617188 127.019531 C 124.003906 127.019531 134.625 126.003906 134.628906 132.757812 C 134.628906 139.234375 124.003906 138.496094 120.613281 138.5 Z M 120.613281 138.5 "/>
<path style="fill:none;stroke-width:8.019;stroke-linecap:butt;stroke-linejoin:miter;stroke:rgb(39.607844%,46.666667%,52.549022%);stroke-opacity:1;stroke-miterlimit:4;" d="M 178.12 128.604406 C 178.12 156.284109 155.68 178.723422 128 178.723422 C 100.32 178.723422 77.88 156.284109 77.88 128.604406 C 77.88 100.924703 100.32 78.485391 128 78.485391 C 155.68 78.485391 178.12 100.924703 178.12 128.604406 Z M 178.12 128.604406 " transform="matrix(0.976562,0,0,0.972763,0,0)"/>
<path style="fill:none;stroke-width:8.019;stroke-linecap:butt;stroke-linejoin:miter;stroke:rgb(15.686275%,22.352941%,27.843139%);stroke-opacity:1;stroke-miterlimit:4;" d="M 194.156 128.604406 C 194.156 165.142578 164.536 194.761828 128 194.761828 C 91.464 194.761828 61.844 165.142578 61.844 128.604406 C 61.844 92.066234 91.464 62.446984 128 62.446984 C 164.536 62.446984 194.156 92.066234 194.156 128.604406 Z M 194.156 128.604406 " transform="matrix(0.976562,0,0,0.972763,0,0)"/>
<path style="fill:none;stroke-width:6.01425;stroke-linecap:butt;stroke-linejoin:miter;stroke:rgb(100%,100%,100%);stroke-opacity:1;stroke-miterlimit:4;" d="M 165.328 169.700312 L 148.132 152.758391 M 101.644 106.948141 L 86.904 92.52 M 90.82 169.700312 L 108.012 152.758391 M 154.504 106.948141 L 169.096 92.52 " transform="matrix(0.976562,0,0,0.972763,0,0)"/>
</g>
</svg>
